X:21
T:Sweetness of Mary, The
R:strathspey
C:Joan MacDonald Boes, Cape Breton, Canada
H:Also played in A
Z:id:hn-strathspey-21
M:C
L:1/8
K:G
G>A | B2 (3BAG E2 (3EGA | B>d c<e d2 (3def | g>fe>d d>cB>c | d<g B>G A2 G>A |
B2 (3BAG E2 (3EGA | B>d c<e d2 (3def | g>fe>d d>cB>c | d<g B>A G2 :|
g>a | b>dg<b a>df<a | g>fe<g d2 c>B | e>dc<e d>c>B>c | d<g B>G A2 g>a |
b>dg<b a>df<a | g>fe<g d2 c>B | e>Gc<e d>cB>c | d<g B>A G2 |
g>a | b>dg<b a>df<a | g>fe<g d2 c>B | e>dc<e d>c>B>c | d<g B>G A2 G>A |
B2 (3BAG E2 (3EGA | B>d c<e d2 (3def | g>fe>d d>cB>c | d<g B>A G2 ||

